symbols/web/music_note/materialsymbolsoutlined/music_note_wght500_20px.svg

<svg xmlns="http://www.w3.org/2000/svg" height="20" width="20"><path d="M8.312 17.688q-1.437 0-2.458-1.021-1.021-1.021-1.021-2.479 0-1.438 1.021-2.459 1.021-1.021 2.458-1.021.459 0 .813.094.354.094.708.24v-8.73h5.334V6h-3.355v8.208q0 1.438-1.031 2.459-1.031 1.021-2.469 1.021Z"/></svg>

<svg xmlns="http://www.w3.org/2000/svg" height="20" width="20"><path d="M8.312 17.688Q6.875 17.688 5.854 16.667Q4.833 15.646 4.833 14.188Q4.833 12.75 5.854 11.729Q6.875 10.708 8.312 10.708Q8.771 10.708 9.125 10.802Q9.479 10.896 9.833 11.042V2.312H15.167V6H11.812V14.208Q11.812 15.646 10.781 16.667Q9.75 17.688 8.312 17.688Z"/></svg>
